packages/ui-icons/svg/Line/pause.svg

<svg viewBox="0 0 1920 1920" version="1.1" xmlns="http://www.w3.org/2000/svg">
    <path d="M206,1920 L754.571429,1920 L754.571429,0 L206,0 L206,1920 Z M1714.57143,0 L1714.57143,1920 L1166,1920 L1166,0 L1714.57143,0 Z M617.428571,137.142857 L617.428571,1782.85714 L343.142857,1782.85714 L343.142857,137.142857 L617.428571,137.142857 Z M1303.14286,1782.85714 L1577.42857,1782.85714 L1577.42857,137.142857 L1303.14286,137.142857 L1303.14286,1782.85714 Z" stroke="none" stroke-width="1" fill-rule="evenodd"/>
</svg>

<svg viewBox="0 0 1920 1920" version="1.1" xmlns="http://www.w3.org/2000/svg">
    <path d="M206 1920h548.571V0H206v1920zm137.143-137.143V137.143h274.286v1645.714H343.143zM1166 1920V0h548.571v1920H1166zm137.143-137.143h274.286V137.143h-274.286v1645.714z" stroke="none" stroke-width="1" fill-rule="evenodd"/>
</svg>
